X: 35411
T: Round Mid-day
R: reel
M: 4/4
K: Gmajor
AGED Eccc|d3c BAGE|AGED Eccc|degc BAAG|
AGED Eccc|d3c BAB/c/d|egdc cBBA|AGGE cEGE||
e2ed geeg|edBd AGED|e2ed gabg|edgd BAAA|
e2ed geeg|edgd edg/a/b|ageg cgec|d2Bd AGED||

